!!!COM: Johannes Brahms
!!!CNT: Deutscher
!!!TXO: Deutsche
!!!OTL: Die Schale der Vergessenheit
!!!OPS: Op. 46
!!!ONM: No. 3
!!!LYR: Ho2lty
!!!ONB: Original key: E Major
!!!ENC: Ayako Kataoka
!!!EED: Leigh VanHandel
!!!YOR: C.F. Peters, Brahms Lieder fu2r eine Singstimme mit Klavierbegleitung, Band III, ausgabe fu2r tiefere Stimme
!!!ODT: 1868/
!!NB: Vocal melody and text only encoded.
**kern	**silbe
*clefG2	*
*k[f#c#]	*
*M3/4	*
*MM[vivace]	*
=1-	=1-
{2b	{Ei-
4b	-ne
=2	=2
2b	Scha-
8a	-le
8g	des
=3	=3
2b}	Stroms,}
{[4b	{wel-
=4	=4
4b]	|
4a	-cher
4g	Ver-
=5	=5
2dd	-ges-
4cc#	-sen-
=6	=6
4dd	-heit
4d	durch
4e	E-
=7	=7
4fn	-ly-
4e	-si-
4d	-ums
=8	=8
2bn	Blu-
4g#	-men
=9	=9
2a}	rollt,}
4r	.
=11	=11
{2dd	{bring,
4f#	o
=12	=12
4.f#	Ge-
8e	-ni-
4e}	-us,}
=13	=13
{2dd	{bring
[4f#	dei-
=14	=14
4f#]	|
4g#	-nem
4b	Ver-
=15	=15
2a	schmach-
4g#	-ten-
=16	=16
4f#}	-den,}
4r	.
{[4dd#	{bring-
=17	=17
2dd#]	|
[4f#	-dei-
=18	=18
4f#]	|
4e#	-nem
4ddn	Ver-
=19	=19
(2c#	-schmach-
[4b	|
=20	=20
4b]	|
4a)	|
4g#	-ten-
=21	=21
2f#}	-den!}
4r	.
=23	=23
*k[f#c#g#d#a#e#]	*
{2g#	{Dort,
4g#	wo
=24	=24
4b	Pha-
4a#	-on
4g#	die
=25	=25
2a#	Sa2n-
4f#	-ge-
=26	=26
2g#}	-rin,}
4r	.
=27	=27
{2a#	{dort,
4a#	wo
=28	=28
4cc#	Or-
4b	-pheus
4a#	ver-
=29	=29
2b	-gass
[4a#	sei-
=30	=30
4a]	|
4g#	-ner
4d#	Eu-
=31	=31
2f#	-ry-
4e#	-di-
=32	=32
2e#}	-ce,}
4r	.
=33	=33
{2.cc#	{scho2pf
=34	=34
2.e#	den
=35	=35
2.cc#	sil-
=36	=36
2d#	ber-
4a#	-nen
=37	=37
(2g#	Schlum-
[4f#	|
=38	=38
4f#]	|
4e#)	|
4d#	-mer-
=39	=39
2c#}	-quell!}
4r	.
=41	=41
*k[f#c#]	*
{2b	{Ha!
4b	dann
=42	=42
2b	tauch
8a	ich
8g#	dein
=43	=43
2b}	Bild,}
{[4b	{spro2-
=44	=44
4b]	|
4a	-de
4g#	-Ge-
=45	=45
2dd	-bie-
4cc#	-te-
=46	=46
4dd}	-rin,}
{4d	{und
4e	die
=47	=47
4fn	la2-
4e	-cheln-
4d	-de
=48	=48
2bn	Lip-
4g#}	-pe}
=49	=49
4r	.
4r	.
{4a	{voll
=50	=50
2dd	Lau-
4cc#	-ten-
=51	=51
4g	-klan-
4fn}	-ges,}
4r	.
=52	=52
4r	.
4r	.
{4d	{des
=53	=53
4.bn	Haars
8r	.
[4g#	schat-
=54	=54
4g#]	|
4a	-ti-
4dd	-ge
=55	=55
2cc#	Wal-
4gn	-lun-
=56	=56
4f#}	-gen,}
4r	.
4r	.
=57	=57
4r	.
{4b	{und
4a	das
=58	=58
2.a	Be-
=59	=59
4g#	-ben
4r	.
4b	der
=60	=60
2dd	wei-
4fn	-ssen
=61	=61
4e}	Brust,}
4r	.
4r	.
=62	=62
{2b	{und
4b	den
=63	=63
2b	sie-
8a	-gen-
8g#	-den
=64	=64
2dd}	Blick,}
{[4dd	{der-
=65	=65
4dd]	|
4cc#	mir
4b	im
=66	=66
2ff#	Mar-
4e	-ke
=67	=67
4.ee}	zuckt,}
8r	.
4r	.
=68	=68
{2.dd	{tauch
=67	=67
2.f#	ich
=69	=70
2.dd	tief
=70	=70
2e	in
4b	den
=71	=71
(2a	Schlum-
[4g	|
=72	=72
4g]	|
4f#)	|
4e	-mer-
=73	=73
2d}	-quell,}
{[4b	{tauch
=74	=74
2b]	|
4d	ich
=75	=75
2.d	tief
=76	=76
2c#	in
4b	den
=77	=77
(2a	Schlum-
[4g	|
=78	=78
4g]	|
4f#)	|
4e	-mer-
=79	=79
2d}	quell!}
4r	.
*-	*-
